!!!COM: Anon.
!!!OTL: Antoninho vai a\ aula
!!!OTL: Romanceiro Folclorico do Brasil
!!!CNT: Brasil
!!!OCY: Brasil
!!!ODT: <1971///
!!!PSR: Irmaos Vitale
!!!PSP: Sao Paulo, Brasil
!!!PDT: 1950///
!!!PPE: Rossini Tavares de Lima
!!!PPG: page 34
!! Romance: Antoniho
!! Place: Sao Paulo, Brasil
**kern
*clefG2
*k[b-e-a-]
*M3/4
*MM100
8g
8g
=
4c
4c
8g
8g
=
4c
4c
8g
8g
=
4a-
4g
8f
8en
=
2f
4g
=
4b-
8a-
8g
8f
8a-
=
4a-
4g
8f
8e-
=
4g
4f
8e-
8d
=
2c
==
*-
